resources/haticons/SVG/automatic.svg

<!-- Generated by IcoMoon.io -->
<svg version="1.1" xmlns="http://www.w3.org/2000/svg" width="24" height="24" viewBox="0 0 24 24">
<title>automatic</title>
<path d="M12 6.768v0.002-1.237c-0.485 0.033-0.754 0.293-0.99 0.71l-5.14 10.477h2.464l-0.753-0.96 0.654-1.363 0.005 0.007 3.76-7.63v-0.006zM10.526 13.123h2.946l-1.472-3.047zM8.233 14.416h0.017l-0.010-0.013zM13.473 13.123v0.002zM21.496 5.066l-8.236-4.758c-0.693-0.4-1.827-0.4-2.52 0l-8.236 4.758c-0.693 0.398-1.26 1.38-1.26 2.182v9.507c0 0.802 0.567 1.782 1.26 2.18l8.236 4.757c0.693 0.4 1.826 0.4 2.52 0l8.235-4.768c0.692-0.39 1.26-1.38 1.26-2.174v-9.504c0-0.8-0.567-1.78-1.26-2.18zM15.43 17.116l-0.687-1.384h-5.5l-0.673 1.384h-3.283l5.396-11.033c0.305-0.607 0.777-0.9 1.317-0.9s1.034 0.328 1.316 0.89l5.396 11.043h-3.282zM12 6.77v2.474l2.518 5.173h-6.268l0.758 0.94h5.972l0.674 1.35h2.474l-1.708-0.99v0.040l-4.42-8.987z"></path>
</svg>

<svg xmlns="http://www.w3.org/2000/svg" width="24" height="24"><path d="M12 6.768v.002-1.237c-.485.033-.754.293-.99.71L5.87 16.72h2.464l-.753-.96.654-1.363.005.007L12 6.774v-.006zm-1.474 6.355h2.946L12 10.076zm-2.293 1.293h.017l-.01-.013zm5.24-1.293v.002zm8.023-8.057L13.26.308c-.693-.4-1.827-.4-2.52 0L2.504 5.066c-.693.398-1.26 1.38-1.26 2.182v9.507c0 .802.567 1.782 1.26 2.18l8.236 4.757c.693.4 1.826.4 2.52 0l8.235-4.768c.692-.39 1.26-1.38 1.26-2.174V7.246c0-.8-.567-1.78-1.26-2.18zm-6.066 12.05l-.687-1.384h-5.5l-.673 1.384H5.287l5.396-11.033c.305-.607.777-.9 1.317-.9s1.034.328 1.316.89l5.396 11.043H15.43zM12 6.77v2.474l2.518 5.173H8.25l.758.94h5.972l.674 1.35h2.474l-1.708-.99v.04L12 6.77z"/></svg>
